flaticon/science/test-tube-5.svg

<svg xmlns="http://www.w3.org/2000/svg" width="32" height="32" viewBox="0 0 24 24">
    <path d="M 23.59375 20.800781 L 2.804688 20.800781 L 2.804688 14.003906 C 3.042969 14.003906 3.203125 13.84375 3.203125 13.605469 L 3.203125 13.203125 L 6.402344 13.203125 L 6.402344 13.605469 C 6.402344 13.84375 6.5625 14.003906 6.800781 14.003906 L 7.601562 14.003906 L 7.601562 17.601562 C 7.601562 18.921875 8.679688 20 10 20 C 11.320312 20 12.398438 18.921875 12.398438 17.601562 L 12.398438 14.003906 L 13.199219 14.003906 C 13.4375 14.003906 13.597656 13.84375 13.597656 13.605469 L 13.597656 10.40625 C 13.597656 10.164062 13.4375 10.003906 13.199219 10.003906 L 12.398438 10.003906 L 12.398438 9.207031 L 12.800781 9.207031 C 13.039062 9.207031 13.199219 9.046875 13.199219 8.804688 L 13.199219 6.40625 C 13.199219 6.167969 13.039062 6.007812 12.800781 6.007812 L 7.203125 6.007812 C 6.960938 6.007812 6.800781 6.167969 6.800781 6.40625 L 6.800781 8.804688 C 6.800781 9.046875 6.960938 9.207031 7.203125 9.207031 L 7.601562 9.207031 L 7.601562 10.003906 L 6.800781 10.003906 C 6.5625 10.003906 6.402344 10.164062 6.402344 10.40625 L 6.402344 10.804688 L 3.203125 10.804688 L 3.203125 10.40625 C 3.203125 10.164062 3.042969 10.003906 2.804688 10.003906 L 2.804688 8.804688 C 2.804688 8.566406 2.644531 8.40625 2.402344 8.40625 L 0.804688 8.40625 C 0.566406 8.40625 0.40625 8.566406 0.40625 8.804688 L 0.40625 10.003906 C 0.164062 10.003906 0.00390625 10.164062 0.00390625 10.40625 L 0.00390625 13.605469 C 0.00390625 13.84375 0.164062 14.003906 0.40625 14.003906 L 0.40625 20.800781 C 0.164062 20.800781 0.00390625 20.960938 0.00390625 21.203125 L 0.00390625 23.601562 C 0.00390625 23.839844 0.164062 24 0.40625 24 L 10 24 C 10.121094 24 10.199219 23.960938 10.28125 23.878906 L 10.960938 23.199219 L 13.4375 23.199219 L 14.121094 23.878906 C 14.199219 23.960938 14.277344 24 14.398438 24 L 23.59375 24 C 23.835938 24 23.996094 23.839844 23.996094 23.601562 L 23.996094 21.203125 C 23.996094 20.960938 23.835938 20.800781 23.59375 20.800781 Z M 0.804688 10.804688 L 2.402344 10.804688 L 2.402344 13.203125 L 0.804688 13.203125 Z M 11.601562 17.601562 C 11.601562 18.480469 10.878906 19.203125 10 19.203125 C 9.121094 19.203125 8.402344 18.480469 8.402344 17.601562 L 8.402344 16.003906 L 11.601562 16.003906 Z M 12.800781 13.203125 L 12 13.203125 L 12 10.804688 L 12.800781 10.804688 Z M 7.601562 6.808594 L 12.398438 6.808594 L 12.398438 8.40625 L 7.601562 8.40625 Z M 8.402344 9.207031 L 11.601562 9.207031 L 11.601562 10.003906 C 11.359375 10.003906 11.199219 10.164062 11.199219 10.40625 L 11.199219 13.605469 C 11.199219 13.84375 11.359375 14.003906 11.601562 14.003906 L 11.601562 15.203125 L 8.402344 15.203125 L 8.402344 14.003906 C 8.640625 14.003906 8.800781 13.84375 8.800781 13.605469 L 8.800781 10.40625 C 8.800781 10.164062 8.640625 10.003906 8.402344 10.003906 Z M 7.203125 10.804688 L 8 10.804688 L 8 13.203125 L 7.203125 13.203125 Z M 6.402344 11.605469 L 6.402344 12.40625 L 3.203125 12.40625 L 3.203125 11.605469 Z M 1.203125 9.207031 L 2.003906 9.207031 L 2.003906 10.003906 L 1.203125 10.003906 Z M 1.203125 14.003906 L 2.003906 14.003906 L 2.003906 20.800781 L 1.203125 20.800781 Z M 23.195312 23.199219 L 14.558594 23.199219 L 13.878906 22.519531 C 13.800781 22.441406 13.71875 22.402344 13.597656 22.402344 L 10.800781 22.402344 C 10.679688 22.402344 10.601562 22.441406 10.519531 22.519531 L 9.839844 23.199219 L 0.804688 23.199219 L 0.804688 21.601562 L 23.195312 21.601562 Z M 23.195312 23.199219"/>
    <path d="M 11.519531 5.207031 L 13.199219 5.207031 C 13.640625 5.207031 14.039062 5.40625 14.359375 5.6875 L 20.4375 11.804688 C 20.597656 11.925781 20.757812 12.003906 20.957031 12.003906 C 21.15625 12.003906 21.316406 11.925781 21.476562 11.804688 L 23.675781 9.605469 C 23.875 9.40625 23.996094 9.085938 23.996094 8.804688 C 23.996094 8.527344 23.875 8.207031 23.675781 8.007812 L 22.195312 6.527344 C 22.164062 6.496094 22.128906 6.46875 22.09375 6.449219 L 15.917969 0.210938 C 15.636719 -0.0703125 15.160156 -0.0703125 14.878906 0.210938 L 11.039062 4.007812 C 10.839844 4.207031 10.761719 4.527344 10.878906 4.769531 C 11 5.046875 11.242188 5.207031 11.519531 5.207031 Z M 23.074219 8.566406 C 23.117188 8.644531 23.15625 8.726562 23.15625 8.804688 C 23.15625 8.886719 23.15625 8.964844 23.074219 9.046875 L 20.957031 11.164062 L 16.996094 7.207031 L 21.722656 7.207031 Z M 15.359375 0.808594 L 20.925781 6.40625 L 16.199219 6.40625 L 14.917969 5.128906 C 14.480469 4.6875 13.839844 4.40625 13.199219 4.40625 L 11.761719 4.40625 Z M 15.359375 0.808594"/>
</svg>

<svg xmlns="http://www.w3.org/2000/svg" width="32" height="32" viewBox="0 0 24 24">
    <path d="M23.594 20.8H2.804v-6.796c.239 0 .4-.16.4-.399v-.402h3.198v.402c0 .239.16.399.399.399h.8v3.598A2.404 2.404 0 0 0 10 20a2.404 2.404 0 0 0 2.398-2.398v-3.598h.801c.239 0 .399-.16.399-.399v-3.199c0-.242-.16-.402-.399-.402h-.8v-.797h.402c.238 0 .398-.16.398-.402V6.406c0-.238-.16-.398-.398-.398H7.203c-.242 0-.402.16-.402.398v2.399c0 .242.16.402.402.402h.399v.797H6.8c-.239 0-.399.16-.399.402v.399H3.203v-.399c0-.242-.16-.402-.398-.402v-1.2c0-.238-.16-.398-.403-.398H.805c-.239 0-.399.16-.399.399v1.199c-.242 0-.402.16-.402.402v3.2c0 .238.16.398.402.398V20.8c-.242 0-.402.16-.402.402v2.399c0 .238.16.398.402.398H10c.121 0 .2-.04.281-.121l.68-.68h2.476l.684.68a.348.348 0 0 0 .277.121h9.196c.242 0 .402-.16.402-.398v-2.399c0-.242-.16-.402-.402-.402zM.804 10.806h1.598v2.398H.805zm10.798 6.797c0 .878-.723 1.601-1.602 1.601a1.605 1.605 0 0 1-1.598-1.601v-1.598h3.2zm1.199-4.399H12v-2.398h.8zM7.6 6.81h4.797v1.597H7.602zm.801 2.398h3.2v.797c-.243 0-.403.16-.403.402v3.2c0 .238.16.398.403.398v1.2h-3.2v-1.2c.239 0 .399-.16.399-.399v-3.199c0-.242-.16-.402-.399-.402zm-1.199 1.598H8v2.398h-.797zm-.8.8v.801h-3.2v-.8zm-5.2-2.398h.8v.797h-.8zm0 4.797h.8V20.8h-.8zm21.992 9.195H14.56l-.68-.68a.366.366 0 0 0-.281-.117H10.8c-.121 0-.2.04-.281.118l-.68.68H.805v-1.598h22.39zm0 0"/>
    <path d="M11.52 5.207h1.68c.44 0 .84.2 1.16.48l6.078 6.118c.16.12.32.199.519.199.2 0 .36-.078.52-.2l2.199-2.199c.199-.199.32-.52.32-.8a1.19 1.19 0 0 0-.32-.797l-1.48-1.48a.47.47 0 0 0-.102-.079L15.918.211a.745.745 0 0 0-1.04 0L11.04 4.008c-.2.199-.277.52-.16.762a.692.692 0 0 0 .64.437zm11.554 3.36c.043.078.082.16.082.238 0 .082 0 .16-.082.242l-2.117 2.117-3.96-3.957h4.726zM15.36.808l5.567 5.597h-4.727L14.918 5.13a2.477 2.477 0 0 0-1.719-.723h-1.437zm0 0"/>
</svg>
